dist/img/orig/benefits-Imaginative — копия.svg

<svg width="35" height="35" viewBox="0 0 35 35" fill="none" xmlns="http://www.w3.org/2000/svg">
<path fill-rule="evenodd" clip-rule="evenodd" d="M31.1665 0.416016H3.83317C1.954 0.416016 0.433587 1.95352 0.433587 3.83268L0.416504 34.5827L7.24984 27.7493H31.1665C33.0457 27.7493 34.5832 26.2118 34.5832 24.3327V3.83268C34.5832 1.95352 33.0457 0.416016 31.1665 0.416016V0.416016ZM27.7498 20.916H7.24984V17.4993H27.7498V20.916V20.916ZM27.7498 15.791H7.24984V12.3743H27.7498V15.791V15.791ZM27.7498 10.666H7.24984V7.24935H27.7498V10.666V10.666Z" fill="#040858"/>
</svg>

<svg width="35" height="35" fill="none" xmlns="http://www.w3.org/2000/svg"><path fill-rule="evenodd" clip-rule="evenodd" d="M31.166.416H3.834c-1.879 0-3.4 1.538-3.4 3.417l-.016 30.75 6.833-6.834h23.916a3.427 3.427 0 003.417-3.416v-20.5A3.427 3.427 0 0031.167.416zm-3.416 20.5H7.25v-3.417h20.5v3.417zm0-5.125H7.25v-3.417h20.5v3.417zm0-5.125H7.25V7.249h20.5v3.417z" fill="#040858"/></svg>
